X:18962
T:Xiraldilla (CT 058)
R:Xiraldilla
C:Tradicional
S:Msica Tradicional Asturiana, (C) Tello & Tito. Asturies, 2001.
S:http://pagina.de/MusTradAst <telloytito@asturies.org>
N:Xiraldilla, dictada por Fernando Menndez lvarez, de treinta y cinco aos, de Llanuces, ayuntamiento de Quirs.
O:Llanuces (Quirs)
A:Asturies
Z:Cancioneru de Torner 058
M:3/8
L:1/8
Q:3/8=88
W:Arriba, galn, arriba,
W:que arriba va la penosa
W:con la saya anaranjada
W:y la mantilla garbosa.
K:C
|GBc|d2 e|d2 c|B3|ABc|d2 e|d2 c|B2 z|
GAA|c2 d|B2 A|G2 z|GAA|c2 d|B2 A|G2 z||
